X: 1010
T: Her Seherde Sen Gelirsin Aklıma
C: Nihat Adlim
O: Turkey
F: http://compmusic.upf.edu/node/140
N: huseyni--sarki--duyek--her_seherde--nihat_adlim
N: makam= huseyni
N: form= sarki
N: usul= duyek = 8/4
M: 8/4
L: 1/16
K: C _2/4B ^3/4f  
Q: 1/4=168
%%MIDI tuningsystem comma53
G2 A6 A8  | e16  | z2 e4 d2 e3d e3/2d/ e^f  | g16  | \
w:  ARANAĞME  |   |   |   | 
z2 g2 ^f2 g2 a4 g2 ^3/4f2  | 
w:   | 
gf e14  | z2 c2 B2 c2 d6 a2  | g2 =f2 e2 d2 c2 B2 A4  | \
w:   |   |   | 
z2 c2 B2 c2 d4 c2 B2  | 
w:   | 
cB A4 e2 A8  | G2 A6 A8  | e16  | z2 e4 d2 e3d e3/2d/ e^f  | g16  | \
w:   |  ARANAĞME  |   |   |   | 
z2 g2 ^f2 g2 a4 g2 ^3/4f2  | 
w:   | 
gf e14  | z2 c2 B2 c2 d6 a2  | g2 =f2 e2 d2 c2 B2 A4  | \
w:   |   |   | 
z2 c2 B2 c2 d4 c2 B2  | 
w:   | 
cB A4 e2 A8  | z2 A4 A2 e8  | e=f d6 de c6  | \
w:   |  Her  se her  |  de   | 
cd B2 Bc A2 A8  | 
w:   | 
z2 g4 g2 ga f6  | fg e6 e^1/4f d6  | \
w:  sen  ge lir  |  sin   | 
z2 a4 g2 f2 e2 g2 fe  | e16  | 
w:  ak *  *  *  *  lı  |  ma    | 
z2 c2 B2 d2 A8  | z2 A4 A2 e8  | e=f d6 de c6  | \
w:  SAZ  |  Her  se her  |  de   | 
cd B2 Bc A2 A8  | 
w:   | 
z2 g4 g2 ga f6  | fg e6 e^1/4f d6  | \
w:  sen  ge lir  |  sin   | 
z2 a4 g2 f2 e2 g2 fe  | e16  | 
w:  ak *  *  *  *  lı  |  ma    | 
z2 e4 d2 e3/2d/ ef g4  | ^f2 g6 g8  | \
w:  SAZ  |  U fuk lar   | 
z2 g6 f4 e4  | d2 e4 d2 d2 ed c2 B2  | 
w:  çep çev re   |  a ğar *  dı ğı  *  *  za  | 
{c}c16  | z2 e4 d2 ed cB c4  | z2 d6 d4 z2 a2  | \
w:  *  man    |  SAZ  |  Bil sen  na  | 
g2 =f2 e2 d2 c2 B2 A4  | 
w:  sıl   | 
z2 c4 c2 cd B4 z2  | Bc A14  | A12 z4  | \
w:  çar pı yor   |  kal  |  bim   | 
.G2 .c4 z2 B4 A2 A2  | A16  | g4 z2 f2 e4 d4  | 
w:  na sıl  an la ta  |  mam     |  SAZ  | 
^f2 g6 fg af g4  | g4 z2 f2 e4 d4  | \
w:   |  Sen  ka ran lık   | 
f2 g6 f4 e4  | ^f2 g6 f2 g2 a2 ag  | 
w:  ge ce le ri   |  se ver  | 
g16  | z2 g2 ^f2 g2 a8  | a=b g6 ga ^f6  | \
w:  din    |  Sim *  si yah   |   | 
fg e2 e^1/4f d2 de c6  | 
w:   | 
z2 d4 e2 e2 d2 ed cB  | {c}c16  | z2 e4 d2 ed cB c4  | \
w:  göz le rin  *  var  |  *  dı    |  SAZ  | 
z2 c2 B2 c2 d6 cB  | 
w:  Son *  ra  el ve  | 
A12 z4  | .G2 .c4 z2 .B4 .A4  | .G2 .c4 z2 .B4 .A4  | \
w:  dâ   |  de din  bir  gün   |  SAZ  | 
G2 c8-c2 z2 Bc  | d8 d6 a2  | 
w:  Bü tün  ü  |  mit mit le  | 
g2 =f2 e2 d2 c2 B2 A4  | G2 c6 B4 A4  | \
w:  rim   |  ka rar  | 
A12 z4  | G2 c4 z2 B4 A2 A2  | A16  | |


